app/style/graphics/spriteSheets/pickups/powerPellet.svg

<?xml version="1.0" encoding="utf-8"?>
<!-- Generator: Adobe Illustrator 27.8.1, SVG Export Plug-In . SVG Version: 6.00 Build 0)  -->
<svg version="1.1" id="Calque_1" xmlns="http://www.w3.org/2000/svg" xmlns:xlink="http://www.w3.org/1999/xlink" x="0px" y="0px"
	 viewBox="0 0 8 8" style="enable-background:new 0 0 8 8;" xml:space="preserve">
<style type="text/css">
	.st0{fill:#3BEABC;}
</style>
<path class="st0" d="M6,0H2v1H1v1H0v4h1v1h1v1h4V7h1V6h1V2H7V1H6V0z"/>
</svg>

<svg width="8" height="8" viewBox="0 0 8 8" fill="none" xmlns="http://www.w3.org/2000/svg">
<path d="M6 0H2V1H1V2H0V6H1V7H2V8H6V7H7V6H8V2H7V1H6V0Z" fill="#FAB9B0"/>
</svg>
